X: 11201
T: Dunning-Kruger Effect, The
R: jig
M: 6/8
K: Dmajor
|:dFd dFd|dGd dGd|dFd dFd|cec Age|
dFd d2 c|dGd d2 c|dFd dF/G/d|1 cAe Gec:|2 GEe gec||
|:d2 f FdF|G2 e [EA]ge|d2 f FdA|GEe gec|
d2 f FdA|G2 e EAc|d2 f F2 d|1 cec Age:|2 cAa gg/f/e||

